X: 1228
T: Karcığar Örnek-öz (2)
C: Rûhî Ayangil
O: Turkey
F: http://compmusic.upf.edu/node/140
N: karcigar--ornek-oz--devrihindi--1--ruhi_ayangil
N: makam= karcigar
N: form= ornek-oz
N: usul= devrihindi = 7/4
M: 7/4
L: 1/16
K: C _2/4B _3/4e ^3/4f 
Q: 1/4=102
%%MIDI tuningsystem comma53
c4 _3/4B2 c2 A2 B4  | _3/4B4 A2 B2 G2 A4  | \
w:   |   | 
g4 ^f2 g2 e2 f4  | _7/8e4 d2 e2 c2 d4  | \
w:   |   | 
a4 g2 ^f2 g2 a4  | 
w:   | 
_7/8e4 d2 _3/4e2 d2 c4  | c4 B2 B2 A2 _2/4e4  | \
w:   |   | 
d4 c2 B4 A4  | |


